Newaita-dark/actions/32/kdenlive-split-audio.svg

<svg height="32" viewBox="0 0 32 32" width="32" xmlns="http://www.w3.org/2000/svg"><g fill="#e0e0e0"><path d="m20.507812 6.867188h1.324219c.363281 0 .660157.292968.660157.660156v1.324218c0 .363282-.296876.660157-.660157.660157h-1.324219c-.367187 0-.664062-.296875-.664062-.660157v-1.324218c0-.367188.296875-.660156.664062-.660156zm0 0"/><path d="m5.292969 12.15625h2.644531v-5.292969c0-.730469.589844-1.320312 1.324219-1.320312h13.230469c.734374 0 1.324218.589843 1.324218 1.320312v5.292969h2.644532v-6.613281c0-1.464844-1.179688-2.648438-2.644532-2.648438h-15.878906c-1.464844 0-2.644531 1.183594-2.644531 2.648438zm0 0"/><path d="m9.921875 6.867188h1.324219c.363281 0 .660156.292968.660156.660156v1.324218c0 .363282-.296875.660157-.660156.660157h-1.324219c-.363281 0-.660156-.296875-.660156-.660157v-1.324218c0-.367188.296875-.660156.660156-.660156zm0 0"/><path d="m2.644531 16.789062v-1.324218c0-.363282.296875-.660156.664063-.660156h25.136718c.367188 0 .660157.296874.660157.660156v1.324218c0 .363282-.292969.660157-.660157.660157h-25.136718c-.367188 0-.664063-.296875-.664063-.660157zm0 0"/><path d="m15.855469 20.070312c-.277344.007813-.523438.183594-.621094.445313l-2.453125 6.542969-2.917969-5.308594c-.117187-.210938-.332031-.34375-.574219-.355469-.238281-.011719-.464843.105469-.597656.304688l-1.121094 1.679687h-2.277343c-.25-.003906-.480469.125-.605469.339844s-.125.476562 0 .691406.355469.34375.605469.339844h2.644531c.230469 0 .445312-.113281.570312-.304688l.695313-1.042968 3.09375 5.625c.128906.234375.386719.371094.652344.351562.265625-.019531.5-.191406.59375-.441406l2.371093-6.324219 1.976563 4.695313c.101563.242187.335937.40625.601563.417968.261718.011719.511718-.128906.636718-.363281l2.019532-3.789062 1.390624 2.78125c.109376.21875.328126.363281.570313.378906.246094.015625.480469-.101563.613281-.304687l1.324219-1.984376c.140625-.203124.160156-.46875.050781-.691406-.109375-.21875-.328125-.367187-.574218-.382812-.246094-.011719-.484376.105468-.617188.3125l-.667969 1-1.457031-2.910156c-.113281-.230469-.347656-.375-.605469-.378907-.253906-.003906-.492187.136719-.613281.363281l-1.96875 3.6875-2.085938-4.953124c-.109374-.261719-.367187-.429688-.652343-.421876zm0 0"/><path d="m3.308594 23.402344h1.984375c.363281 0 .660156.296875.660156.664062 0 .363282-.296875.660156-.660156.660156h-1.984375c-.367188 0-.664063-.296874-.664063-.660156 0-.367187.296875-.664062.664063-.664062zm0 0"/><path d="m24.476562 23.402344h3.96875c.367188 0 .660157.285156.660157.636718v.050782c0 .351562-.292969.636718-.660157.636718h-3.96875c-.367187 0-.660156-.285156-.660156-.636718v-.050782c0-.351562.292969-.636718.660156-.636718zm0 0"/></g></svg>

<svg xmlns="http://www.w3.org/2000/svg" xmlns:xlink="http://www.w3.org/1999/xlink" width="32px" height="32px" viewBox="0 0 32 32" version="1.1">
<g id="surface1">
     <defs>
  <style id="current-color-scheme" type="text/css">
   .ColorScheme-Text { color:#eeeeee; } .ColorScheme-Highlight { color:#424242; }
  </style>
 </defs>
<path style="fill:currentColor" class="ColorScheme-Text" d="M 20.507812 6.867188 L 21.832031 6.867188 C 22.195312 6.867188 22.492188 7.160156 22.492188 7.527344 L 22.492188 8.851562 C 22.492188 9.214844 22.195312 9.511719 21.832031 9.511719 L 20.507812 9.511719 C 20.140625 9.511719 19.84375 9.214844 19.84375 8.851562 L 19.84375 7.527344 C 19.84375 7.160156 20.140625 6.867188 20.507812 6.867188 Z M 20.507812 6.867188 "/>
     <defs>
  <style id="current-color-scheme" type="text/css">
   .ColorScheme-Text { color:#eeeeee; } .ColorScheme-Highlight { color:#424242; }
  </style>
 </defs>
<path style="fill:currentColor" class="ColorScheme-Text" d="M 5.292969 12.15625 L 7.9375 12.15625 L 7.9375 6.863281 C 7.9375 6.132812 8.527344 5.542969 9.261719 5.542969 L 22.492188 5.542969 C 23.226562 5.542969 23.816406 6.132812 23.816406 6.863281 L 23.816406 12.15625 L 26.460938 12.15625 L 26.460938 5.542969 C 26.460938 4.078125 25.28125 2.894531 23.816406 2.894531 L 7.9375 2.894531 C 6.472656 2.894531 5.292969 4.078125 5.292969 5.542969 Z M 5.292969 12.15625 "/>
     <defs>
  <style id="current-color-scheme" type="text/css">
   .ColorScheme-Text { color:#eeeeee; } .ColorScheme-Highlight { color:#424242; }
  </style>
 </defs>
<path style="fill:currentColor" class="ColorScheme-Text" d="M 9.921875 6.867188 L 11.246094 6.867188 C 11.609375 6.867188 11.90625 7.160156 11.90625 7.527344 L 11.90625 8.851562 C 11.90625 9.214844 11.609375 9.511719 11.246094 9.511719 L 9.921875 9.511719 C 9.558594 9.511719 9.261719 9.214844 9.261719 8.851562 L 9.261719 7.527344 C 9.261719 7.160156 9.558594 6.867188 9.921875 6.867188 Z M 9.921875 6.867188 "/>
     <defs>
  <style id="current-color-scheme" type="text/css">
   .ColorScheme-Text { color:#eeeeee; } .ColorScheme-Highlight { color:#424242; }
  </style>
 </defs>
<path style="fill:currentColor" class="ColorScheme-Text" d="M 2.644531 16.789062 L 2.644531 15.464844 C 2.644531 15.101562 2.941406 14.804688 3.308594 14.804688 L 28.445312 14.804688 C 28.8125 14.804688 29.105469 15.101562 29.105469 15.464844 L 29.105469 16.789062 C 29.105469 17.152344 28.8125 17.449219 28.445312 17.449219 L 3.308594 17.449219 C 2.941406 17.449219 2.644531 17.152344 2.644531 16.789062 Z M 2.644531 16.789062 "/>
     <defs>
  <style id="current-color-scheme" type="text/css">
   .ColorScheme-Text { color:#eeeeee; } .ColorScheme-Highlight { color:#424242; }
  </style>
 </defs>
<path style="fill:currentColor" class="ColorScheme-Text" d="M 15.855469 20.070312 C 15.578125 20.078125 15.332031 20.253906 15.234375 20.515625 L 12.78125 27.058594 L 9.863281 21.75 C 9.746094 21.539062 9.53125 21.40625 9.289062 21.394531 C 9.050781 21.382812 8.824219 21.5 8.691406 21.699219 L 7.570312 23.378906 L 5.292969 23.378906 C 5.042969 23.375 4.8125 23.503906 4.6875 23.71875 C 4.5625 23.933594 4.5625 24.195312 4.6875 24.410156 C 4.8125 24.625 5.042969 24.753906 5.292969 24.75 L 7.9375 24.75 C 8.167969 24.75 8.382812 24.636719 8.507812 24.445312 L 9.203125 23.402344 L 12.296875 29.027344 C 12.425781 29.261719 12.683594 29.398438 12.949219 29.378906 C 13.214844 29.359375 13.449219 29.1875 13.542969 28.9375 L 15.914062 22.613281 L 17.890625 27.308594 C 17.992188 27.550781 18.226562 27.714844 18.492188 27.726562 C 18.753906 27.738281 19.003906 27.597656 19.128906 27.363281 L 21.148438 23.574219 L 22.539062 26.355469 C 22.648438 26.574219 22.867188 26.71875 23.109375 26.734375 C 23.355469 26.75 23.589844 26.632812 23.722656 26.429688 L 25.046875 24.445312 C 25.1875 24.242188 25.207031 23.976562 25.097656 23.753906 C 24.988281 23.535156 24.769531 23.386719 24.523438 23.371094 C 24.277344 23.359375 24.039062 23.476562 23.90625 23.683594 L 23.238281 24.683594 L 21.78125 21.773438 C 21.667969 21.542969 21.433594 21.398438 21.175781 21.394531 C 20.921875 21.390625 20.683594 21.53125 20.5625 21.757812 L 18.59375 25.445312 L 16.507812 20.492188 C 16.398438 20.230469 16.140625 20.0625 15.855469 20.070312 Z M 15.855469 20.070312 "/>
     <defs>
  <style id="current-color-scheme" type="text/css">
   .ColorScheme-Text { color:#eeeeee; } .ColorScheme-Highlight { color:#424242; }
  </style>
 </defs>
<path style="fill:currentColor" class="ColorScheme-Text" d="M 3.308594 23.402344 L 5.292969 23.402344 C 5.65625 23.402344 5.953125 23.699219 5.953125 24.066406 C 5.953125 24.429688 5.65625 24.726562 5.292969 24.726562 L 3.308594 24.726562 C 2.941406 24.726562 2.644531 24.429688 2.644531 24.066406 C 2.644531 23.699219 2.941406 23.402344 3.308594 23.402344 Z M 3.308594 23.402344 "/>
     <defs>
  <style id="current-color-scheme" type="text/css">
   .ColorScheme-Text { color:#eeeeee; } .ColorScheme-Highlight { color:#424242; }
  </style>
 </defs>
<path style="fill:currentColor" class="ColorScheme-Text" d="M 24.476562 23.402344 L 28.445312 23.402344 C 28.8125 23.402344 29.105469 23.6875 29.105469 24.039062 L 29.105469 24.089844 C 29.105469 24.441406 28.8125 24.726562 28.445312 24.726562 L 24.476562 24.726562 C 24.109375 24.726562 23.816406 24.441406 23.816406 24.089844 L 23.816406 24.039062 C 23.816406 23.6875 24.109375 23.402344 24.476562 23.402344 Z M 24.476562 23.402344 "/>
</g>
</svg>
